X:1
T: Jackson's Cravat
C:
R:Jig
Q:180
K:G
M:6/8
L:1/16
f2|g2d2c2 B2d2B2|c2e2c2 B2d2B2|g2d2c2 B2d2B2|e2c2A2 A4f2|g2d2c2 B2d2B2|c2e2c2 B2d2B2|G4g2 g2f2g2|d2B2G2 G4f2|
g2d2c2 B2d2B2|c2e2c2 B2d2B2|g2d2c2 B2d2B2|e2c2A2 A4f2|g2d2c2 B2d2B2|c2e2c2 B2d2B2|G4g2 g2f2g2|d2B2G2 G4f2|
g2f2g2 e2f2g2|a2b2g2 f2e2d2|g2f2e2 d2c2B2|e2c2A2 A4f2|g2f2g2e2f2g2|a2b2g2 f2e2d2|g2f2e2 d2e2c2|B2G2G2 G4f2|
g2f2g2 e2f2g2|a2b2g2 f2e2d2|g2f2e2 d2c2B2|e2c2A2 A4f2|g2f2g2 e2f2g2|a2b2g2 f2e2d2|g2f2e2 d2e2c2|B2G2G2 G4||
